X:7
T:Le monde ancien s'en est all - E135
C:J. Glineau
M:3/4
L:1/4
Q:"Bien allant "1/4=132
K:Cm
"Dom"CEF|"Mib"G2G|"Lab"c2c|"Mib"B3|G"Sib"B"Mib"G|"Sib"F2"Dom"E|"Rem"DD2|"Sol"G3|
"Dom"CEF|"Mib"G2G|"Lab"c2c|"Sib"B3|"Mib"G"Sib"B"Mib"G|"Fa"F2E|"Solm"DD2|"Dom"C3||
